X:5
T:Boda Valsen
S:Bernie Waugh
R:Waltz
M:3/4
L:1/8
K:Em
|:\
"Em"B3cBA|B3cBA|B4e2|B3def|\
"G"g4g2|"D"f4e2|"Bm"f3gf2|B6|
"C"e4e2|"D"d3cBA|"G"B4A2|"Em"G3FGA|\
"Am"B3ABc|"B7"A3GF2|"Em"E6-|E6:|
|:\
"C"e4e2|g3fe2|"G"d6|B6|\
"D"A3Bc2|c2B2A2|"G"B4c2|"G7"d6|
"C"e4e2|g3fe2|"Bm"d6|B6|\
"Am"A3Bc2|"D"D2E2F2|"G"G3AGF|G6:|

